X:413
T:Leather away the Wattle, O
N:For the dance "The Percolator" by Gail Ticknor
S:Colin Hume's website,  colinhume.com  - chords can also be printed below the stave.
Q:1/2=110
M:4/4
L:1/4
K:D
P:A
|: f/e/ | "D"dAFA | "/"d3/d/ df | "Em"edcd | "A7"efgf/g/ |
"D"af "Em"ge | "G"dc "A"A3/F/ | "Em"GB "A7"A/B/A/G/ | "D"FDD :|
P:B
|: z | "D"f3/f/ ff | "G"zgg2 | "D"f3/f/ "Bm"fa | "Em"gf "A7"ef/g/ |
"D"af "Em"ge | "G"dc "A"A3/F/ | "Em"GB "A7"A/B/A/G/ | "D"FDD :|

